src/mimetypes/symbolic/application-x-firmware-symbolic.svg

<svg width="16px" height="16px" version="1.1" viewBox="0 0 16 16" xmlns="http://www.w3.org/2000/svg">
 <path d="m1.5 0c-0.82422 0-1.5 0.67578-1.5 1.5s0.67578 1.5 1.5 1.5c0.64453 0 1.1992-0.41797 1.4102-0.99609l1.7812-0.0039062 0.36328 0.71875c0.125 0.24609 0.42188 0.34375 0.67188 0.22266 0.11719-0.058594 0.20703-0.16406 0.25-0.28906 0.039063-0.125 0.031249-0.26562-0.027344-0.38281l-0.64062-1.2695-2.3945 0.0039062c-0.21094-0.58203-0.76562-1.0039-1.4141-1.0039zm7.5 0v1h-1v1h-1v1h1v1h-1v1h1v1h-1v1h1v1h1v1h1v-1h1v1h1v-1h1v1h1v-1h1v-1h1v-1h-1v-1h1v-1h-1v-1h1v-1h-1v-1h-1v-1h-1v1h-1v-1h-1v1h-1v-1h-1zm-7.5 1c0.28125 0 0.5 0.21875 0.5 0.5s-0.21875 0.5-0.5 0.5-0.5-0.21875-0.5-0.5 0.21875-0.5 0.5-0.5zm8 1h4c0.277 0 0.5 0.223 0.5 0.5v4c0 0.277-0.223 0.5-0.5 0.5h-4c-0.277 0-0.5-0.223-0.5-0.5v-4c0-0.277 0.223-0.5 0.5-0.5zm-9.5 2v1h3.2227l1.0391 1.6641h-0.0039063c-0.16406 0.23828-0.25781 0.52734-0.25781 0.83594 0 0.82422 0.67578 1.5 1.5 1.5s1.5-0.67578 1.5-1.5-0.67578-1.5-1.5-1.5c-0.14844 0-0.29297 0.023438-0.42969 0.0625l-1.293-2.0625h-3.7773zm0 3v1h1.7305l2 3h0.95703l0.71875 1.4805c-0.14062 0.14844-0.25 0.32422-0.32031 0.51953h-0.81641l-2-3h-2.2695v1h1.7305l2 3h1.3555c0.21094 0.57812 0.76562 1 1.4141 1 0.82422 0 1.5-0.67578 1.5-1.5s-0.67578-1.5-1.5-1.5c-0.070312 0-0.14062 0.007812-0.21094 0.015625l-0.49219-1.0156h1.9141l0.79688 1.3789c-0.3125 0.27734-0.50781 0.67578-0.50781 1.1211 0 0.82422 0.67578 1.5 1.5 1.5s1.5-0.67578 1.5-1.5-0.67578-1.5-1.5-1.5c-0.019531 0-0.035156 0-0.054688 0.003906l-0.57812-1.0039h1.8438l0.80078 1.375c-0.3125 0.27734-0.51172 0.67969-0.51172 1.125 0 0.82422 0.67578 1.5 1.5 1.5s1.5-0.67578 1.5-1.5-0.67578-1.5-1.5-1.5c-0.015625 0-0.035156 0-0.050781 0.003906l-0.58203-1.0039h1.2188c0.21094 0.57812 0.76562 1 1.4141 1 0.82422 0 1.5-0.67578 1.5-1.5s-0.67578-1.5-1.5-1.5c-0.64844 0-1.2031 0.42188-1.4141 1h-8.8164l-2-3h-2.2695zm5.5 0c0.28125 0 0.5 0.21875 0.5 0.5s-0.21875 0.5-0.5 0.5-0.5-0.21875-0.5-0.5 0.21875-0.5 0.5-0.5zm9 3c0.28125 0 0.5 0.21875 0.5 0.5s-0.21875 0.5-0.5 0.5-0.5-0.21875-0.5-0.5 0.21875-0.5 0.5-0.5zm-8 3c0.28125 0 0.5 0.21875 0.5 0.5s-0.21875 0.5-0.5 0.5-0.5-0.21875-0.5-0.5 0.21875-0.5 0.5-0.5zm3 0c0.28125 0 0.5 0.21875 0.5 0.5s-0.21875 0.5-0.5 0.5-0.5-0.21875-0.5-0.5 0.21875-0.5 0.5-0.5zm3 0c0.28125 0 0.5 0.21875 0.5 0.5s-0.21875 0.5-0.5 0.5-0.5-0.21875-0.5-0.5 0.21875-0.5 0.5-0.5z" fill="#363636"/>
</svg>

<svg xmlns="http://www.w3.org/2000/svg" width="16" height="16">
    <path fill="#050505" fill-opacity=".7" d="M1.5 0C.676 0 0 .676 0 1.5S.676 3 1.5 3c.645 0 1.2-.418 1.41-.996L4.691 2l.364.719a.503.503 0 0 0 .672.222.508.508 0 0 0 .25-.289.52.52 0 0 0-.028-.382L5.31 1l-2.395.004A1.514 1.514 0 0 0 1.5 0zM9 0v1H8v1H7v1h1v1H7v1h1v1H7v1h1v1h1v1h1V8h1v1h1V8h1v1h1V8h1V7h1V6h-1V5h1V4h-1V3h1V2h-1V1h-1V0h-1v1h-1V0h-1v1h-1V0H9zM1.5 1c.281 0 .5.219.5.5s-.219.5-.5.5-.5-.219-.5-.5.219-.5.5-.5zm8 1h4c.277 0 .5.223.5.5v4c0 .277-.223.5-.5.5h-4a.499.499 0 0 1-.5-.5v-4c0-.277.223-.5.5-.5zM0 4v1h3.223l1.039 1.664h-.004A1.47 1.47 0 0 0 4 7.5C4 8.324 4.676 9 5.5 9S7 8.324 7 7.5a1.506 1.506 0 0 0-1.93-1.437L3.777 4H0zm0 3v1h1.73l2 3h.958l.718 1.48c-.14.149-.25.325-.32.52H4.27l-2-3H0v1h1.73l2 3h1.356c.211.578.766 1 1.414 1 .824 0 1.5-.676 1.5-1.5S7.324 12 6.5 12c-.07 0-.14.008-.21.016L5.796 11h1.914l.797 1.379A1.493 1.493 0 0 0 8 13.5c0 .824.676 1.5 1.5 1.5s1.5-.676 1.5-1.5-.676-1.5-1.5-1.5c-.02 0-.035 0-.054.004L8.867 11h1.844l.801 1.375c-.313.277-.512.68-.512 1.125 0 .824.676 1.5 1.5 1.5s1.5-.676 1.5-1.5-.676-1.5-1.5-1.5c-.015 0-.035 0-.05.004L11.866 11h1.22c.21.578.765 1 1.413 1 .825 0 1.5-.676 1.5-1.5S15.325 9 14.5 9c-.648 0-1.203.422-1.414 1H4.27l-2-3H0zm5.5 0c.281 0 .5.219.5.5s-.219.5-.5.5-.5-.219-.5-.5.219-.5.5-.5zm9 3c.281 0 .5.219.5.5s-.219.5-.5.5-.5-.219-.5-.5.219-.5.5-.5zm-8 3c.281 0 .5.219.5.5s-.219.5-.5.5-.5-.219-.5-.5.219-.5.5-.5zm3 0c.281 0 .5.219.5.5s-.219.5-.5.5-.5-.219-.5-.5.219-.5.5-.5zm3 0c.281 0 .5.219.5.5s-.219.5-.5.5-.5-.219-.5-.5.219-.5.5-.5z"/>
</svg>
